_site/images/homepage/circle-check.svg

<svg fill="none" height="14" viewBox="0 0 14 14" width="14" xmlns="http://www.w3.org/2000/svg"><circle cx="7" cy="7" fill="#00a0b6" r="7"/><path d="m9.03013 5.03487-2.62931 2.63566-1.03095-1.03829c-.31338-.31318-.82146-.31318-1.13484 0-.31337.31318-.31337.82095 0 1.13413l1.59837 1.59737c.15006.1512.35433.23625.56742.23625s.41736-.08505.56742-.23625l3.19676-3.19474c.3133-.31318.3133-.82094 0-1.13413-.31341-.31318-.82149-.31318-1.13487 0z" fill="#fff"/></svg>

<svg width="14" height="14" viewBox="0 0 14 14" fill="none" xmlns="http://www.w3.org/2000/svg">
<circle cx="7" cy="7" r="7" fill="#00A0B6"/>
<path d="M9.03013 5.03487L6.40082 7.67053L5.36987 6.63224C5.05649 6.31906 4.54841 6.31906 4.23503 6.63224C3.92166 6.94542 3.92166 7.45319 4.23503 7.76637L5.8334 9.36374C5.98346 9.51494 6.18773 9.59999 6.40082 9.59999C6.61391 9.59999 6.81818 9.51494 6.96824 9.36374L10.165 6.169C10.4783 5.85582 10.4783 5.34806 10.165 5.03487C9.85159 4.72169 9.34351 4.72169 9.03013 5.03487Z" fill="white"/>
</svg>
